X: 20705
T: Johnny An Gabha
R: polka
M: 2/4
K: Gmajor
|:G2 Bd|ed Bd|e2 ef|ed Bd|
G2 Bd|ed Bd|e2 ef|g2 g2:|
|:g2 f2|ed Bd|e2 ef|ed Bd|
g2 f2|ed Bd|e2 ef|g2 g2:|

